X: 75
T:Cornish Quickstep
% Nottingham Music Database
S:Geoff Bocking, via EF
M:4/4
L:1/4
K:D
f/2^e/2|"D"fd/2c/2 dA/2^G/2|"D"Ad f3/2f/2|"G"gf ed|"A7"cB Af/2^e/2|
"D"fd/2c/2 dA/2^G/2|"D"Ad f3/2f/2|"A7"eA Bc|"D"d2 d:||:
A|"D"FA/2A/2 AA|"G"GB/2B/2 BB|"A7"Ac/2c/2 cc|"D"d/2e/2f/2e/2 "G"d/2c/2B/2A/2|
"D"FA/2A/2 AA|"G"GB/2B/2 BB|"A7"Ac/2c/2 ce|"D"d2 d:|


